X: 33242
T: Pull The Knife And Stick It Again
R: jig
M: 6/8
K: Adorian
|:~A3 cBA|GEA GEG|~A3 cBA|d2e dBG|
~A3 cBA|GEA GAB|cBA BAG|1 EAG A2G:|2 EAG A3||
|:age edB|AGE ~G3|age edB|def gab|
age edB|AGE GAB|cBA BAG|1 EAG A3:|2 EAG A2G||

